X:898
T:Patsy Hanley's
T:McCabe's
R:reel
H:The Ashplant version is notated here
D:Ashplant: Autographed
D:Dervish: Spirit
Z:id:hn-reel-898
M:C|
L:1/8
K:D
f2fd ed (3Bcd | ~f3e fga2 |1 f2fd edBd | ABdf efde :|2 bf~f2 afdB | ABdf efdB ||
|: AF~F2 EDEF | D2FD EDEF | AFBF AFEF |1 defd efdB :|2 defd efde ||

